X: 1
T: Devil in the Strawstack
C:
R: reel
Z: 2014 John Chambers <jc:trillian.mit.edu>
S: handwritten MS by John Chambers (1970s)
M: C|
L: 1/8
K: Amix
AB |: AG  EG AG EG | AG EG DG EG | AG EG A2 e2-| ed c2 A2 z2 :|
 e |: ea- ag ab ag | ed ef g2 ef | ge af eg ag | ed c2 A2 z2 :|
